_includes/icons/ios-print.svg

<svg fill="#666" height="50" viewBox="0 0 50 50" width="50" xmlns="http://www.w3.org/2000/svg"><path d="m11 2v13h-6c-1.6449698 0-3 1.35503-3 3v18c0 1.64497 1.3550302 3 3 3h6v9h28v-9h6c1.64497 0 3-1.35503 3-3v-18c0-1.64497-1.35503-3-3-3h-6v-13zm2 2h24v11h-24zm-8 13h6.832031a1.0001 1.0001 0 0 0 .326172 0h25.673828a1.0001 1.0001 0 0 0 .326172 0h6.841797c.56503 0 1 .43497 1 1v18c0 .56503-.43497 1-1 1h-6v-9h-1-27v9h-6c-.5650302 0-1-.43497-1-1v-18c0-.56503.4349698-1 1-1zm36 3a2 2 0 0 0 -2 2 2 2 0 0 0 2 2 2 2 0 0 0 2-2 2 2 0 0 0 -2-2zm-28 10h24v7.832031a1.0001 1.0001 0 0 0 0 .326172v7.841797h-24v-7.832031a1.0001 1.0001 0 0 0 0-.326172zm4 3a1.0001 1.0001 0 1 0 0 2h16a1.0001 1.0001 0 1 0 0-2zm0 4a1.0001 1.0001 0 1 0 0 2h12a1.0001 1.0001 0 1 0 0-2zm0 4a1.0001 1.0001 0 1 0 0 2h16a1.0001 1.0001 0 1 0 0-2z"/></svg>

<svg xmlns="http://www.w3.org/2000/svg" viewBox="0 0 50 50" width="50" height="50" fill="#666"><path d="M 11 2 L 11 15 L 5 15 C 3.3550302 15 2 16.35503 2 18 L 2 36 C 2 37.64497 3.3550302 39 5 39 L 11 39 L 11 48 L 39 48 L 39 39 L 45 39 C 46.64497 39 48 37.64497 48 36 L 48 18 C 48 16.35503 46.64497 15 45 15 L 39 15 L 39 2 L 11 2 z M 13 4 L 37 4 L 37 15 L 13 15 L 13 4 z M 5 17 L 11.832031 17 A 1.0001 1.0001 0 0 0 12.158203 17 L 37.832031 17 A 1.0001 1.0001 0 0 0 38.158203 17 L 45 17 C 45.56503 17 46 17.43497 46 18 L 46 36 C 46 36.56503 45.56503 37 45 37 L 39 37 L 39 28 L 38 28 L 11 28 L 11 37 L 5 37 C 4.4349698 37 4 36.56503 4 36 L 4 18 C 4 17.43497 4.4349698 17 5 17 z M 41 20 A 2 2 0 0 0 39 22 A 2 2 0 0 0 41 24 A 2 2 0 0 0 43 22 A 2 2 0 0 0 41 20 z M 13 30 L 37 30 L 37 37.832031 A 1.0001 1.0001 0 0 0 37 38.158203 L 37 46 L 13 46 L 13 38.167969 A 1.0001 1.0001 0 0 0 13 37.841797 L 13 30 z M 17 33 A 1.0001 1.0001 0 1 0 17 35 L 33 35 A 1.0001 1.0001 0 1 0 33 33 L 17 33 z M 17 37 A 1.0001 1.0001 0 1 0 17 39 L 29 39 A 1.0001 1.0001 0 1 0 29 37 L 17 37 z M 17 41 A 1.0001 1.0001 0 1 0 17 43 L 33 43 A 1.0001 1.0001 0 1 0 33 41 L 17 41 z"/></svg>
